X:1
T:Danc'd by Aldridge [3]
M:2/4
L:1/8
R:Reel
B:McGlashan - Collection of Scots Measures (c. 1781, p. 37)
Z:AK/Fiddler's Companion
K:C
e/f/|g/e/c/c/ {d}cB/c/|d/c/B/A/ G/F/E/D/|E/G/c/B/ A/f/d/c/|BG Ge/f/|
g/e/c/c/ {d}cB/c/|d/c/B/A/ G/F/E/D/|E/G/c/B/ A/f/d/c/|cc cz:|
|:e/f/|e/f/g/a/ _b/g/a/b/|a/g/f/e/ fa/g/|a/g/f/e/ d/c/B/A/|B/c/B/A/ G/F/E/D/|
E/c/G/c/ F/c/A/c/|B/g/e/g/ d/g/e/g/|a/f/a/f/ e/d/c/B/|cc c:|]

